X: 5624
T: Buttered Pease
R: barndance
M: 4/4
K: Gmajor
|:dc|B2 D2 B2 AB|c2 D2 c3 A|F2 d2 FGAB|d2 A2 d3 c|
B2 D2 B2 AB|c2 d2 e4|d2 g2 fgaf|g2 g2 g2:|
|:Bc|d2 g2 gfed|c2 c2 c4|c2 a2 agfe|d2 d2 d2 ef|
g2 g2 g2 B2|c2 d2 e2 c2|d2 g2 fgaf|g2 g2 g2:|

